svg/SJJB-OpenStreetMapIcons/shopping/music.svg

<?xml version="1.0" encoding="UTF-8" standalone="no"?>
<!-- Created with Inkscape (http://www.inkscape.org/) -->

<svg
   xmlns:dc="http://purl.org/dc/elements/1.1/"
   xmlns:cc="http://creativecommons.org/ns#"
   xmlns:rdf="http://www.w3.org/1999/02/22-rdf-syntax-ns#"
   xmlns:svg="http://www.w3.org/2000/svg"
   xmlns="http://www.w3.org/2000/svg"
   xmlns:xlink="http://www.w3.org/1999/xlink"
   xmlns:sodipodi="http://sodipodi.sourceforge.net/DTD/sodipodi-0.dtd"
   xmlns:inkscape="http://www.inkscape.org/namespaces/inkscape"
   version="1.0"
   width="580"
   height="580"
   id="svg2"
   sodipodi:version="0.32"
   inkscape:version="0.47 r22583"
   sodipodi:docname="shopping_music.svg"
   inkscape:output_extension="org.inkscape.output.svg.inkscape">
  <metadata
     id="metadata2975">
    <rdf:RDF>
      <cc:Work
         rdf:about="">
        <dc:format>image/svg+xml</dc:format>
        <dc:type
           rdf:resource="http://purl.org/dc/dcmitype/StillImage" />
        <cc:license
           rdf:resource="http://web.resource.org/cc/PublicDomain" />
        <dc:language>en</dc:language>
        <dc:title></dc:title>
      </cc:Work>
    </rdf:RDF>
  </metadata>
  <sodipodi:namedview
     inkscape:window-height="1005"
     inkscape:window-width="1280"
     inkscape:pageshadow="2"
     inkscape:pageopacity="0.0"
     guidetolerance="10.0"
     gridtolerance="10.0"
     objecttolerance="10.0"
     borderopacity="1.0"
     bordercolor="#666666"
     pagecolor="#ffffff"
     id="base"
     inkscape:zoom="0.46083856"
     inkscape:cx="491.9285"
     inkscape:cy="204.16132"
     inkscape:window-x="-4"
     inkscape:window-y="-4"
     inkscape:current-layer="svg2"
     showgrid="false"
     inkscape:window-maximized="1"
     showguides="true"
     inkscape:guide-bbox="true" />
  <defs
     id="defs4">
    <inkscape:perspective
       sodipodi:type="inkscape:persp3d"
       inkscape:vp_x="0 : 290 : 1"
       inkscape:vp_y="6.1230318e-14 : 1000 : 0"
       inkscape:vp_z="580 : 290 : 1"
       inkscape:persp3d-origin="290 : 193.33333 : 1"
       id="perspective2441" />
    <inkscape:perspective
       id="perspective3452"
       inkscape:persp3d-origin="30 : 20 : 1"
       inkscape:vp_z="60 : 30 : 1"
       inkscape:vp_y="0 : 1000 : 0"
       inkscape:vp_x="0 : 30 : 1"
       sodipodi:type="inkscape:persp3d" />
    <symbol
       viewBox="244.5 110 489 219.9"
       id="symbol-university">
      <path
         id="path4460"
         d="M79,43l57,119c0,0,21-96,104-96s124,106,124,106l43-133l82-17L0,17L79,43z" />
      <path
         id="path4462"
         d="M94,176l-21,39"
         stroke-width="20"
         stroke="#000000"
         fill="none" />
      <path
         id="path4464"
         d="M300,19c0,10.5-22.6,19-50.5,19S199,29.5,199,19s22.6-19,50.5-19S300,8.5,300,19z" />
      <path
         id="path4466"
         d="M112,216l-16-38L64,88c0,0-9-8-4-35s16-24,16-24"
         stroke-width="20"
         stroke="#000000"
         ill="none" />
    </symbol>
    <inkscape:perspective
       id="perspective4471"
       inkscape:persp3d-origin="372.04724 : 350.78739 : 1"
       inkscape:vp_z="744.09448 : 526.18109 : 1"
       inkscape:vp_y="0 : 1000 : 0"
       inkscape:vp_x="0 : 526.18109 : 1"
       sodipodi:type="inkscape:persp3d" />
    <inkscape:perspective
       id="perspective4668"
       inkscape:persp3d-origin="6 : 4 : 1"
       inkscape:vp_z="12 : 6 : 1"
       inkscape:vp_y="0 : 1000 : 0"
       inkscape:vp_x="0 : 6 : 1"
       sodipodi:type="inkscape:persp3d" />
    <inkscape:perspective
       id="perspective3826"
       inkscape:persp3d-origin="0.5 : 0.33333333 : 1"
       inkscape:vp_z="1 : 0.5 : 1"
       inkscape:vp_y="0 : 1000 : 0"
       inkscape:vp_x="0 : 0.5 : 1"
       sodipodi:type="inkscape:persp3d" />
    <inkscape:perspective
       id="perspective3855"
       inkscape:persp3d-origin="0.5 : 0.33333333 : 1"
       inkscape:vp_z="1 : 0.5 : 1"
       inkscape:vp_y="0 : 1000 : 0"
       inkscape:vp_x="0 : 0.5 : 1"
       sodipodi:type="inkscape:persp3d" />
    <inkscape:perspective
       id="perspective3909"
       inkscape:persp3d-origin="0.5 : 0.33333333 : 1"
       inkscape:vp_z="1 : 0.5 : 1"
       inkscape:vp_y="0 : 1000 : 0"
       inkscape:vp_x="0 : 0.5 : 1"
       sodipodi:type="inkscape:persp3d" />
    <inkscape:perspective
       id="perspective3950"
       inkscape:persp3d-origin="0.5 : 0.33333333 : 1"
       inkscape:vp_z="1 : 0.5 : 1"
       inkscape:vp_y="0 : 1000 : 0"
       inkscape:vp_x="0 : 0.5 : 1"
       sodipodi:type="inkscape:persp3d" />
    <inkscape:perspective
       id="perspective3972"
       inkscape:persp3d-origin="0.5 : 0.33333333 : 1"
       inkscape:vp_z="1 : 0.5 : 1"
       inkscape:vp_y="0 : 1000 : 0"
       inkscape:vp_x="0 : 0.5 : 1"
       sodipodi:type="inkscape:persp3d" />
    <inkscape:perspective
       id="perspective3994"
       inkscape:persp3d-origin="0.5 : 0.33333333 : 1"
       inkscape:vp_z="1 : 0.5 : 1"
       inkscape:vp_y="0 : 1000 : 0"
       inkscape:vp_x="0 : 0.5 : 1"
       sodipodi:type="inkscape:persp3d" />
    <inkscape:perspective
       id="perspective4016"
       inkscape:persp3d-origin="0.5 : 0.33333333 : 1"
       inkscape:vp_z="1 : 0.5 : 1"
       inkscape:vp_y="0 : 1000 : 0"
       inkscape:vp_x="0 : 0.5 : 1"
       sodipodi:type="inkscape:persp3d" />
    <inkscape:perspective
       id="perspective4837"
       inkscape:persp3d-origin="0.5 : 0.33333333 : 1"
       inkscape:vp_z="1 : 0.5 : 1"
       inkscape:vp_y="0 : 1000 : 0"
       inkscape:vp_x="0 : 0.5 : 1"
       sodipodi:type="inkscape:persp3d" />
    <inkscape:perspective
       id="perspective4971"
       inkscape:persp3d-origin="0.5 : 0.33333333 : 1"
       inkscape:vp_z="1 : 0.5 : 1"
       inkscape:vp_y="0 : 1000 : 0"
       inkscape:vp_x="0 : 0.5 : 1"
       sodipodi:type="inkscape:persp3d" />
    <inkscape:perspective
       id="perspective6216"
       inkscape:persp3d-origin="0.5 : 0.33333333 : 1"
       inkscape:vp_z="1 : 0.5 : 1"
       inkscape:vp_y="0 : 1000 : 0"
       inkscape:vp_x="0 : 0.5 : 1"
       sodipodi:type="inkscape:persp3d" />
    <inkscape:perspective
       id="perspective6764"
       inkscape:persp3d-origin="0.5 : 0.33333333 : 1"
       inkscape:vp_z="1 : 0.5 : 1"
       inkscape:vp_y="0 : 1000 : 0"
       inkscape:vp_x="0 : 0.5 : 1"
       sodipodi:type="inkscape:persp3d" />
    <inkscape:perspective
       id="perspective6817"
       inkscape:persp3d-origin="0.5 : 0.33333333 : 1"
       inkscape:vp_z="1 : 0.5 : 1"
       inkscape:vp_y="0 : 1000 : 0"
       inkscape:vp_x="0 : 0.5 : 1"
       sodipodi:type="inkscape:persp3d" />
    <radialGradient
       gradientUnits="userSpaceOnUse"
       gradientTransform="scale(0.79354273,1.2601716)"
       xlink:href="#linearGradient829"
       id="radialGradient874"
       cx="180.2453"
       cy="198.41902"
       r="101.58017"
       fx="180.2453"
       fy="198.41902" />
    <linearGradient
       id="linearGradient829">
      <stop
         style="stop-color: rgb(255, 255, 255); stop-opacity: 0.341667;"
         offset="0.0000000"
         id="stop830" />
      <stop
         style="stop-color: rgb(255, 255, 255); stop-opacity: 0;"
         offset="1.0000000"
         id="stop831" />
    </linearGradient>
    <radialGradient
       gradientUnits="userSpaceOnUse"
       gradientTransform="scale(1.007004,0.99304475)"
       xlink:href="#linearGradient829"
       id="radialGradient832"
       cx="360.85146"
       cy="167.47372"
       r="46.394721"
       fx="360.85146"
       fy="167.47372" />
    <linearGradient
       id="linearGradient6826">
      <stop
         style="stop-color: rgb(255, 255, 255); stop-opacity: 0.341667;"
         offset="0.0000000"
         id="stop6828" />
      <stop
         style="stop-color: rgb(255, 255, 255); stop-opacity: 0;"
         offset="1.0000000"
         id="stop6830" />
    </linearGradient>
    <linearGradient
       gradientUnits="userSpaceOnUse"
       gradientTransform="scale(0.74491357,1.3424376)"
       xlink:href="#linearGradient855"
       id="linearGradient850"
       x1="465.29425"
       y1="248.24467"
       x2="463.27056"
       y2="405.7687"
       spreadMethod="pad" />
    <linearGradient
       id="linearGradient855">
      <stop
         style="stop-color: rgb(255, 255, 255); stop-opacity: 0;"
         offset="0.0000000"
         id="stop856" />
      <stop
         style="stop-color: rgb(255, 166, 23); stop-opacity: 0.733333;"
         offset="1.0000000"
         id="stop857" />
    </linearGradient>
    <linearGradient
       gradientUnits="userSpaceOnUse"
       gradientTransform="scale(1.4586159,0.68558144)"
       xlink:href="#linearGradient855"
       id="linearGradient854"
       x1="157.80581"
       y1="120.96176"
       x2="155.40575"
       y2="231.63491" />
    <linearGradient
       id="linearGradient6837">
      <stop
         style="stop-color: rgb(255, 255, 255); stop-opacity: 0;"
         offset="0.0000000"
         id="stop6839" />
      <stop
         style="stop-color: rgb(255, 166, 23); stop-opacity: 0.733333;"
         offset="1.0000000"
         id="stop6841" />
    </linearGradient>
    <inkscape:perspective
       id="perspective6928"
       inkscape:persp3d-origin="0.5 : 0.33333333 : 1"
       inkscape:vp_z="1 : 0.5 : 1"
       inkscape:vp_y="0 : 1000 : 0"
       inkscape:vp_x="0 : 0.5 : 1"
       sodipodi:type="inkscape:persp3d" />
    <inkscape:perspective
       id="perspective10781"
       inkscape:persp3d-origin="0.5 : 0.33333333 : 1"
       inkscape:vp_z="1 : 0.5 : 1"
       inkscape:vp_y="0 : 1000 : 0"
       inkscape:vp_x="0 : 0.5 : 1"
       sodipodi:type="inkscape:persp3d" />
    <inkscape:perspective
       id="perspective10806"
       inkscape:persp3d-origin="0.5 : 0.33333333 : 1"
       inkscape:vp_z="1 : 0.5 : 1"
       inkscape:vp_y="0 : 1000 : 0"
       inkscape:vp_x="0 : 0.5 : 1"
       sodipodi:type="inkscape:persp3d" />
    <inkscape:perspective
       id="perspective10878"
       inkscape:persp3d-origin="0.5 : 0.33333333 : 1"
       inkscape:vp_z="1 : 0.5 : 1"
       inkscape:vp_y="0 : 1000 : 0"
       inkscape:vp_x="0 : 0.5 : 1"
       sodipodi:type="inkscape:persp3d" />
    <inkscape:perspective
       id="perspective10919"
       inkscape:persp3d-origin="0.5 : 0.33333333 : 1"
       inkscape:vp_z="1 : 0.5 : 1"
       inkscape:vp_y="0 : 1000 : 0"
       inkscape:vp_x="0 : 0.5 : 1"
       sodipodi:type="inkscape:persp3d" />
  </defs>
  <g
     id="g1327">
    <path
       d="M 66.275,1.768 C 24.94,1.768 1.704,23.139 1.704,66.804 L 1.704,516.927 C 1.704,557.771 22.599,579.156 63.896,579.156 L 515.92,579.156 C 557.227,579.156 578.149,558.841 578.149,516.927 L 578.149,66.804 C 578.149,24.203 557.227,1.768 514.628,1.768 C 514.624,1.768 66.133,1.625 66.275,1.768 z "
       style="fill:#111;stroke:#eee;stroke-width:3.40799999"
       id="path1329" />
  </g>
  <g
     id="layer3"
     inkscape:label="Layout"
     style="display:none;stroke:#757575;stroke-opacity:1"
     transform="matrix(48.14969,0,0,48.14969,-536.27327,-33.306752)">
    <rect
       style="fill:none;stroke:#757575;stroke-width:0.10000000000000001;stroke-miterlimit:4;stroke-dasharray:none;stroke-opacity:1;display:inline"
       id="rect4134"
       width="10"
       height="10"
       x="1"
       y="1" />
    <rect
       style="fill:none;stroke:#757575;stroke-width:0.10000000000000001;stroke-miterlimit:4;stroke-dasharray:none;stroke-opacity:1;display:inline"
       id="rect4136"
       width="8"
       height="8"
       x="2"
       y="2" />
  </g>
  <g
     id="g3338"
     transform="matrix(1.3973279,-0.2437849,0.2437849,1.3973279,-185.07402,-56.183307)" />
  <g
     id="g10985"
     transform="matrix(1.2385883,0,0,1.2385883,-64.05885,-60.840688)">
    <g
       id="g10979">
      <path
         sodipodi:type="arc"
         style="fill:#ffffff;fill-opacity:1;stroke:#ffffff;stroke-width:10;stroke-linecap:round;stroke-linejoin:round;stroke-miterlimit:4;stroke-opacity:1;stroke-dasharray:none;stroke-dashoffset:0"
         id="path10961"
         sodipodi:cx="101.26984"
         sodipodi:cy="408.14816"
         sodipodi:rx="52.169312"
         sodipodi:ry="52.169312"
         d="M 153.43915,408.14816 C 153.43915,436.96048 130.08215,460.31747 101.26984,460.31747 C 72.457521,460.31747 49.100525,436.96048 49.100525,408.14816 C 49.100525,379.33585 72.457521,355.97885 101.26984,355.97885 C 130.08215,355.97885 153.43915,379.33585 153.43915,408.14816 z"
         transform="translate(76.719576,-6.1375661)" />
      <path
         style="fill:#ffffff;fill-opacity:1;stroke:#ffffff;stroke-width:20;stroke-linecap:round;stroke-linejoin:round;stroke-miterlimit:4;stroke-opacity:1;stroke-dasharray:none;stroke-dashoffset:0"
         d="M 225.875,162.78125 C 223.26227,162.82213 220.6823,163.936 218.8608,165.80954 C 217.0393,167.68309 215.99853,170.29341 216.03125,172.90625 L 216.03125,366.34375 C 206.51325,356.19473 193.01172,349.84375 178,349.84375 C 149.18768,349.84375 125.8125,373.18768 125.8125,402 C 125.8125,430.81232 149.18768,454.1875 178,454.1875 C 204.28278,454.1875 231.24254,437.46484 235.625,405.46875 C 235.76629,405.35368 236.08632,400.05605 236.03125,396 L 236.03125,172.90625 C 236.06462,170.24133 234.97934,167.58 233.0919,165.69837 C 231.20447,163.81674 228.53981,162.73967 225.875,162.78125 z"
         id="path10963"
         sodipodi:nodetypes="csccssscccsc" />
      <path
         sodipodi:nodetypes="csccssscccsc"
         id="path10975"
         d="M 401.00727,92.19924 C 398.39454,92.24012 395.81457,93.35399 393.99307,95.22753 C 392.17157,97.10108 391.1308,99.7114 391.16352,102.32424 L 391.16352,295.76174 C 381.64552,285.61272 368.14399,279.26174 353.13227,279.26174 C 324.31995,279.26174 300.94477,302.60567 300.94477,331.41799 C 300.94477,360.23031 324.31995,383.60549 353.13227,383.60549 C 379.41505,383.60549 406.37481,366.88283 410.75727,334.88674 C 410.89856,334.77167 411.21859,329.47404 411.16352,325.41799 L 411.16352,102.32424 C 411.19689,99.65932 410.11161,96.99799 408.22417,95.11636 C 406.33674,93.23473 403.67208,92.15766 401.00727,92.19924 z"
         style="fill:#ffffff;fill-opacity:1;stroke:#ffffff;stroke-width:20;stroke-linecap:round;stroke-linejoin:round;stroke-miterlimit:4;stroke-opacity:1;stroke-dasharray:none;stroke-dashoffset:0" />
      <path
         style="fill:none;stroke:#ffffff;stroke-width:40;stroke-linecap:round;stroke-linejoin:round;stroke-miterlimit:4;stroke-opacity:1;stroke-dasharray:none"
         d="M 227.85714,170.61905 L 398.9418,102.80424"
         id="path10977"
         sodipodi:nodetypes="cc" />
    </g>
  </g>
  <path
     style="fill:none;stroke:#ffffff;stroke-width:10;stroke-linecap:butt;stroke-linejoin:miter;stroke-opacity:1;stroke-miterlimit:4;stroke-dasharray:none;opacity:0.3"
     d="M 39.059231,156.85833 L 546.82924,156.85833"
     id="path10992" />
  <path
     id="path10994"
     d="M 39.059231,216.85833 L 546.82924,216.85833"
     style="opacity:0.3;fill:none;stroke:#ffffff;stroke-width:10;stroke-linecap:butt;stroke-linejoin:miter;stroke-miterlimit:4;stroke-opacity:1;stroke-dasharray:none" />
  <path
     style="opacity:0.3;fill:none;stroke:#ffffff;stroke-width:10;stroke-linecap:butt;stroke-linejoin:miter;stroke-miterlimit:4;stroke-opacity:1;stroke-dasharray:none"
     d="M 39.059231,276.85833 L 546.82924,276.85833"
     id="path10996" />
  <path
     id="path10998"
     d="M 39.059231,336.85833 L 546.82924,336.85833"
     style="opacity:0.3;fill:none;stroke:#ffffff;stroke-width:10;stroke-linecap:butt;stroke-linejoin:miter;stroke-miterlimit:4;stroke-opacity:1;stroke-dasharray:none" />
  <path
     style="opacity:0.3;fill:none;stroke:#ffffff;stroke-width:10;stroke-linecap:butt;stroke-linejoin:miter;stroke-miterlimit:4;stroke-opacity:1;stroke-dasharray:none"
     d="M 39.059231,396.85833 L 546.82924,396.85833"
     id="path11000" />
  <path
     id="path11002"
     d="M 39.059231,456.85833 L 546.82924,456.85833"
     style="opacity:0.3;fill:none;stroke:#ffffff;stroke-width:10;stroke-linecap:butt;stroke-linejoin:miter;stroke-miterlimit:4;stroke-opacity:1;stroke-dasharray:none" />
  <path
     style="opacity:0.3;fill:none;stroke:#ffffff;stroke-width:10;stroke-linecap:butt;stroke-linejoin:miter;stroke-miterlimit:4;stroke-opacity:1;stroke-dasharray:none"
     d="M 39.059231,516.85833 L 546.82924,516.85833"
     id="path11004" />
</svg>

<svg xmlns="http://www.w3.org/2000/svg" viewBox="0 0 580 580"><path d="m66.28 1.768c-41.34 0-64.57 21.371-64.57 65.04v450.12c0 40.844 20.895 62.23 62.19 62.23h452.02c41.31 0 62.23-20.315 62.23-62.23v-450.12c0-42.601-20.922-65.04-63.52-65.04-.004 0-448.5-.143-448.35 0z" fill="#111" stroke="#eee" stroke-width="3.408"/><g transform="matrix(1.23859 0 0 1.23859-64.06-60.841)" stroke="#fff" stroke-linejoin="round" stroke-linecap="round"><g fill="#fff"><path d="m153.44 408.15c0 28.812-23.357 52.17-52.17 52.17-28.812 0-52.17-23.357-52.17-52.17 0-28.812 23.357-52.17 52.17-52.17 28.812 0 52.17 23.357 52.17 52.17z" transform="translate(76.72-6.138)" stroke-width="10"/><g stroke-width="20"><path d="m225.87 162.78c-2.613.041-5.193 1.155-7.01 3.03-1.822 1.874-2.862 4.484-2.83 7.097v193.44c-9.518-10.149-23.02-16.5-38.03-16.5-28.812 0-52.19 23.344-52.19 52.16 0 28.812 23.375 52.19 52.19 52.19 26.28 0 53.24-16.723 57.62-48.719.141-.115.461-5.413.406-9.469v-223.09c.033-2.665-1.052-5.326-2.939-7.208-1.887-1.882-4.552-2.959-7.217-2.917z"/><path d="m401.01 92.2c-2.613.041-5.193 1.155-7.01 3.03-1.822 1.874-2.862 4.484-2.83 7.097v193.44c-9.518-10.149-23.02-16.5-38.03-16.5-28.812 0-52.19 23.344-52.19 52.16 0 28.812 23.375 52.19 52.19 52.19 26.28 0 53.24-16.723 57.62-48.719.141-.115.461-5.413.406-9.469v-223.09c.033-2.665-1.052-5.326-2.939-7.208-1.887-1.882-4.552-2.959-7.217-2.917z"/></g></g><path d="m227.86 170.62l171.08-67.815" fill="none" stroke-width="40"/></g><g fill="none" stroke="#fff" stroke-width="10"><path d="m39.06 156.86h507.77" opacity=".3"/><path d="m39.06 216.86h507.77" opacity=".3"/><path d="m39.06 276.86h507.77" opacity=".3"/><path d="m39.06 336.86h507.77" opacity=".3"/><path d="m39.06 396.86h507.77" opacity=".3"/><path d="m39.06 456.86h507.77" opacity=".3"/><path d="m39.06 516.86h507.77" opacity=".3"/></g></svg>
